img/home-icon.svg

<svg height="200" viewBox="0 0 200 200" width="200" xmlns="http://www.w3.org/2000/svg" xmlns:xlink="http://www.w3.org/1999/xlink"><linearGradient id="a" x1="50%" x2="50%" y1="0%" y2="100%"><stop offset="0" stop-color="#dbd6d0"/><stop offset="1" stop-color="#d1cbc5"/></linearGradient><linearGradient id="b" x1="50%" x2="50%" y1="-16.326135%" y2="124.632307%"><stop offset="0" stop-color="#ffa442"/><stop offset="1" stop-color="#ff8500"/></linearGradient><g fill="none" fill-rule="nonzero" transform="translate(2)"><path d="m55.7706624 0h83.8486756c19.392674 0 26.424926 2.01918004 33.514598 5.81077805s12.653688 9.35561395 16.445286 16.44528585 5.810778 14.1219242 5.810778 33.5145985v83.8486756c0 19.392674-2.01918 26.424926-5.810778 33.514598s-9.355614 12.653688-16.445286 16.445286-14.121924 5.810778-33.514598 5.810778h-83.8486756c-19.3926743 0-26.4249266-2.01918-33.5145985-5.810778s-12.65368784-9.355614-16.44528585-16.445286-5.81077805-14.121924-5.81077805-33.514598v-83.8486756c0-19.3926743 2.01918004-26.4249266 5.81077805-33.5145985s9.35561395-12.65368784 16.44528585-16.44528585 14.1219242-5.81077805 33.5145985-5.81077805z" fill="#fff"/><path d="m74.4161133 50.3554509h-5.3426953c-.8430541 0-1.5264844-.6834303-1.5264844-1.5264843v-3.0159019c0-4.5686854.4672497-6.9883032 1.8155243-9.5093575 1.2582949-2.352807 3.1321728-4.2266848 5.4849797-5.4849797 2.5210543-1.3482746 4.9406721-1.8155244 9.5093575-1.8155244h26.6764099c4.568685 0 6.988303.4672498 9.509357 1.8155244 2.352807 1.2582949 4.226685 3.1321727 5.48498 5.4849797 1.348275 2.5210543 1.815524 4.9406721 1.815524 9.5093575v3.0159019c0 .843054-.68343 1.5264843-1.526484 1.5264843h-5.342695c-1.264581 0-2.289727-1.0251455-2.289727-2.2897265v-2.2526597c0-3.1860138-.191413-4.177231-.733062-5.1900278-.404687-.7566983-.971167-1.3231783-1.727865-1.727865-1.012797-.5416497-2.004014-.7330625-5.190028-.7330625h-26.6764099c-3.1860138 0-4.177231.1914128-5.1900277.7330625-.7566983.4046867-1.3231784.9711667-1.727865 1.727865-.5416497 1.0127968-.7330626 2.004014-.7330626 5.1900278v2.2526597c0 1.264581-1.0251455 2.2897265-2.2897265 2.2897265z" fill="url(#a)"/><path d="m45.8904335 52.6637109h103.6091335c7.995225 0 10.894487.832469 13.817422 2.3956717s5.216871 3.8571391 6.780074 6.780074c1.563202 2.9229349 2.395671 5.8221968 2.395671 13.8174222v62.3940552c0 7.995225-.832469 10.894487-2.395671 13.817422-1.563203 2.922935-3.857139 5.216871-6.780074 6.780074s-5.822197 2.395672-13.817422 2.395672h-103.6091335c-7.9952254 0-10.8944873-.832469-13.8174222-2.395672s-5.2168713-3.857139-6.780074-6.780074-2.3956717-5.822197-2.3956717-13.817422v-62.3940552c0-7.9952254.832469-10.8944873 2.3956717-13.8174222s3.8571391-5.2168713 6.780074-6.780074 5.8221968-2.3956717 13.8174222-2.3956717z" fill="url(#b)"/><rect fill="#f2ebe4" height="110.670117" rx="1.144863" width="8.395664" x="137.001973" y="51.518848"/><rect fill="#f2ebe4" height="110.670117" rx="1.144863" width="8.395664" x="49.992363" y="51.518848"/><g fill="#ded8d2"><path d="m137.765215 46.9393945h6.86918c.843054 0 1.526484.6834304 1.526484 1.5264844v1.1448633c0 .421527-.341715.7632422-.763242.7632422h-8.395664c-.421527 0-.763243-.3417152-.763243-.7632422v-1.1448633c0-.843054.683431-1.5264844 1.526485-1.5264844z"/><path d="m50.7556055 46.9393945h6.8691797c.843054 0 1.5264843.6834304 1.5264843 1.5264844v1.1448633c0 .421527-.3417151.7632422-.7632422.7632422h-8.395664c-.421527 0-.7632422-.3417152-.7632422-.7632422v-1.1448633c0-.843054.6834303-1.5264844 1.5264844-1.5264844z"/></g></g></svg>

<?xml version="1.0" encoding="UTF-8"?>
<svg width="200px" height="200px" viewBox="0 0 200 200" version="1.1" xmlns="http://www.w3.org/2000/svg" xmlns:xlink="http://www.w3.org/1999/xlink">
    <!-- Generator: Sketch 52.4 (67378) - http://www.bohemiancoding.com/sketch -->
    <desc>Created with Sketch.</desc>
    <defs>
        <linearGradient x1="50%" y1="0%" x2="50%" y2="100%" id="linearGradient-1">
            <stop stop-color="#DBD6D0" offset="0%"></stop>
            <stop stop-color="#D1CBC5" offset="100%"></stop>
        </linearGradient>
        <linearGradient x1="50%" y1="-16.326135%" x2="50%" y2="124.632307%" id="linearGradient-2">
            <stop stop-color="#FFA442" offset="0%"></stop>
            <stop stop-color="#FF8500" offset="100%"></stop>
        </linearGradient>
    </defs>
    <g id="Landing-Page" stroke="none" stroke-width="1" fill="none" fill-rule="evenodd">
        <g id="Icon" transform="translate(2.000000, 0.000000)">
            <path d="M55.7706624,-9.35862887e-15 L139.619338,-4.85222584e-15 C159.012012,-8.41460232e-15 166.044264,2.01918004 173.133936,5.81077805 C180.223608,9.60237606 185.787624,15.166392 189.579222,22.2560639 C193.37082,29.3457358 195.39,36.3779881 195.39,55.7706624 L195.39,139.619338 C195.39,159.012012 193.37082,166.044264 189.579222,173.133936 C185.787624,180.223608 180.223608,185.787624 173.133936,189.579222 C166.044264,193.37082 159.012012,195.39 139.619338,195.39 L55.7706624,195.39 C36.3779881,195.39 29.3457358,193.37082 22.2560639,189.579222 C15.166392,185.787624 9.60237606,180.223608 5.81077805,173.133936 C2.01918004,166.044264 -6.23264405e-15,159.012012 -8.6075617e-15,139.619338 L-5.60329302e-15,55.7706624 C-7.97821067e-15,36.3779881 2.01918004,29.3457358 5.81077805,22.2560639 C9.60237606,15.166392 15.166392,9.60237606 22.2560639,5.81077805 C29.3457358,2.01918004 36.3779881,-5.79625239e-15 55.7706624,-9.35862887e-15 Z" id="Smooth-Corners" fill="#FFFFFF" fill-rule="nonzero"></path>
            <path d="M74.4161133,50.3554509 L69.073418,50.3554509 C68.2303639,50.3554509 67.5469336,49.6720206 67.5469336,48.8289666 L67.5469336,45.8130647 C67.5469336,41.2443793 68.0141833,38.8247615 69.3624579,36.3037072 C70.6207528,33.9509002 72.4946307,32.0770224 74.8474376,30.8187275 C77.3684919,29.4704529 79.7881097,29.0032031 84.3567951,29.0032031 L111.033205,29.0032031 C115.60189,29.0032031 118.021508,29.4704529 120.542562,30.8187275 C122.895369,32.0770224 124.769247,33.9509002 126.027542,36.3037072 C127.375817,38.8247615 127.843066,41.2443793 127.843066,45.8130647 L127.843066,48.8289666 C127.843066,49.6720206 127.159636,50.3554509 126.316582,50.3554509 L120.973887,50.3554509 C119.709306,50.3554509 118.68416,49.3303054 118.68416,48.0657244 L118.68416,45.8130647 C118.68416,42.6270509 118.492747,41.6358337 117.951098,40.6230369 C117.546411,39.8663386 116.979931,39.2998586 116.223233,38.8951719 C115.210436,38.3535222 114.219219,38.1621094 111.033205,38.1621094 L84.3567951,38.1621094 C81.1707813,38.1621094 80.1795641,38.3535222 79.1667674,38.8951719 C78.4100691,39.2998586 77.843589,39.8663386 77.4389024,40.6230369 C76.8972527,41.6358337 76.7058398,42.6270509 76.7058398,45.8130647 L76.7058398,48.0657244 C76.7058398,49.3303054 75.6806943,50.3554509 74.4161133,50.3554509 Z" id="Rectangle-5" fill="url(#linearGradient-1)" fill-rule="nonzero"></path>
            <path d="M45.8904335,52.6637109 L149.499567,52.6637109 C157.494792,52.6637109 160.394054,53.4961799 163.316989,55.0593826 C166.239924,56.6225853 168.53386,58.9165217 170.097063,61.8394566 C171.660265,64.7623915 172.492734,67.6616534 172.492734,75.6568788 L172.492734,138.050934 C172.492734,146.046159 171.660265,148.945421 170.097063,151.868356 C168.53386,154.791291 166.239924,157.085227 163.316989,158.64843 C160.394054,160.211633 157.494792,161.044102 149.499567,161.044102 L45.8904335,161.044102 C37.8952081,161.044102 34.9959462,160.211633 32.0730113,158.64843 C29.1500764,157.085227 26.85614,154.791291 25.2929373,151.868356 C23.7297346,148.945421 22.8972656,146.046159 22.8972656,138.050934 L22.8972656,75.6568788 C22.8972656,67.6616534 23.7297346,64.7623915 25.2929373,61.8394566 C26.85614,58.9165217 29.1500764,56.6225853 32.0730113,55.0593826 C34.9959462,53.4961799 37.8952081,52.6637109 45.8904335,52.6637109 Z" id="Rectangle-3" fill="url(#linearGradient-2)" fill-rule="nonzero"></path>
            <rect id="Rectangle-2" fill="#F2EBE4" fill-rule="nonzero" x="137.001973" y="51.5188477" width="8.39566406" height="110.670117" rx="1.14486328"></rect>
            <rect id="Rectangle-2" fill="#F2EBE4" fill-rule="nonzero" x="49.9923633" y="51.5188477" width="8.39566406" height="110.670117" rx="1.14486328"></rect>
            <path d="M137.765215,46.9393945 L144.634395,46.9393945 C145.477449,46.9393945 146.160879,47.6228249 146.160879,48.4658789 L146.160879,49.6107422 C146.160879,50.0322692 145.819164,50.3739844 145.397637,50.3739844 L137.001973,50.3739844 C136.580446,50.3739844 136.23873,50.0322692 136.23873,49.6107422 L136.23873,48.4658789 C136.23873,47.6228249 136.922161,46.9393945 137.765215,46.9393945 Z" id="Rectangle-6" fill="#DED8D2" fill-rule="nonzero"></path>
            <path d="M50.7556055,46.9393945 L57.6247852,46.9393945 C58.4678392,46.9393945 59.1512695,47.6228249 59.1512695,48.4658789 L59.1512695,49.6107422 C59.1512695,50.0322692 58.8095544,50.3739844 58.3880273,50.3739844 L49.9923633,50.3739844 C49.5708363,50.3739844 49.2291211,50.0322692 49.2291211,49.6107422 L49.2291211,48.4658789 C49.2291211,47.6228249 49.9125514,46.9393945 50.7556055,46.9393945 Z" id="Rectangle-6" fill="#DED8D2" fill-rule="nonzero"></path>
            <g id="Smooth-Corners" stroke-width="1" fill-rule="evenodd"></g>
        </g>
    </g>
</svg>
